assets/web/icons/user-profile-solid.svg

<svg width="24" height="24" viewBox="0 0 24 24" fill="none" xmlns="http://www.w3.org/2000/svg">
<path d="M12 15C10.9 15 9.95833 14.6083 9.175 13.825C8.39167 13.0417 8 12.1 8 11C8 9.9 8.39167 8.95833 9.175 8.175C9.95833 7.39167 10.9 7 12 7C13.1 7 14.0417 7.39167 14.825 8.175C15.6083 8.95833 16 9.9 16 11C16 12.1 15.6083 13.0417 14.825 13.825C14.0417 14.6083 13.1 15 12 15Z" fill="currentColor"/>
<path d="M19.5281 18.5826C21.0673 16.8238 22 14.5208 22 12C22 6.47715 17.5228 2 12 2C6.47715 2 2 6.47715 2 12C2 14.5208 2.93275 16.8238 4.47194 18.5826C6.30493 20.6772 8.99799 22 12 22C15.002 22 17.6951 20.6772 19.5281 18.5826ZM8.75 16.3875C7.83474 16.6092 6.93176 16.9259 6.04104 17.3378C4.77189 15.9219 4 14.0511 4 12C4 7.58172 7.58172 4 12 4C16.4183 4 20 7.58172 20 12C20 14.0511 19.2281 15.9219 17.959 17.3378C17.0682 16.9259 16.1653 16.6092 15.25 16.3875C14.1833 16.1292 13.1 16 12 16C10.9 16 9.81667 16.1292 8.75 16.3875Z" fill="currentColor"/>
</svg>

<svg xmlns="http://www.w3.org/2000/svg" width="24" height="24" fill="currentColor" viewBox="0 0 24 24">
  <path d="M12 15c-1.1 0-2.042-.392-2.825-1.175C8.392 13.042 8 12.1 8 11s.392-2.042 1.175-2.825C9.958 7.392 10.9 7 12 7s2.042.392 2.825 1.175C15.608 8.958 16 9.9 16 11s-.392 2.042-1.175 2.825C14.042 14.608 13.1 15 12 15Z"/>
  <path d="M19.528 18.583A9.962 9.962 0 0 0 22 12c0-5.523-4.477-10-10-10S2 6.477 2 12c0 2.52.933 4.824 2.472 6.583A9.976 9.976 0 0 0 12 22a9.976 9.976 0 0 0 7.528-3.417ZM8.75 16.388c-.915.221-1.818.538-2.709.95a8 8 0 1 1 11.918 0 14.679 14.679 0 0 0-2.709-.95A13.76 13.76 0 0 0 12 16c-1.1 0-2.183.13-3.25.387Z"/>
</svg>
